icons/op-today-arrows-24.svg

<svg width="24" height="24" viewBox="0 0 24 24" fill="none" xmlns="http://www.w3.org/2000/svg">
<path d="M4.12332 15.2413C3.95889 15.4149 3.95889 15.6963 4.12332 15.8698C4.28775 16.0434 4.55435 16.0434 4.71878 15.8698L8.0872 12.3143C8.25163 12.1407 8.25163 11.8593 8.0872 11.6857L4.71878 8.13017C4.55435 7.95661 4.28775 7.95661 4.12332 8.13017C3.95889 8.30374 3.95889 8.58515 4.12332 8.75871L7.19402 12L4.12332 15.2413Z" fill="black"/>
<path d="M19.8767 8.13018C20.0411 8.30374 20.0411 8.58515 19.8767 8.75871L16.806 12L19.8767 15.2413C20.0411 15.4149 20.0411 15.6963 19.8767 15.8698C19.7122 16.0434 19.4456 16.0434 19.2812 15.8698L15.9128 12.3143C15.7484 12.1407 15.7484 11.8593 15.9128 11.6857L19.2812 8.13018C19.4456 7.95661 19.7122 7.95661 19.8767 8.13018Z" fill="black"/>
<path d="M14.5263 12C14.5263 13.4728 13.3952 14.6667 12 14.6667C10.6048 14.6667 9.47368 13.4728 9.47368 12C9.47368 10.5272 10.6048 9.33333 12 9.33333C13.3952 9.33333 14.5263 10.5272 14.5263 12Z" fill="black"/>
</svg>

<svg xmlns="http://www.w3.org/2000/svg" width="24" height="24" viewBox="0 0 24 24"><path d="M4.123 15.241a.464.464 0 0 0 0 .629.407.407 0 0 0 .596 0l3.368-3.556a.46.46 0 0 0 0-.628L4.719 8.13a.407.407 0 0 0-.596 0 .464.464 0 0 0 0 .629L7.194 12l-3.071 3.241ZM19.877 8.13a.464.464 0 0 1 0 .629L16.806 12l3.071 3.241a.464.464 0 0 1 0 .629.407.407 0 0 1-.596 0l-3.368-3.556a.46.46 0 0 1 0-.628l3.368-3.556a.407.407 0 0 1 .596 0ZM14.526 12c0 1.473-1.131 2.667-2.526 2.667-1.395 0-2.526-1.194-2.526-2.667 0-1.473 1.131-2.667 2.526-2.667 1.395 0 2.526 1.194 2.526 2.667Z"/></svg>
